X:1
T:Wilmington 
T:G Major Elkanah Dare, 1813 
T:Charles Wesley, 1739 Amended by George Whitefield, 1753            77. 77. 
T:Transcribed from Wyeth's Repository, Part Second , 1813. 
%%score [ 1 2 3 4 ]
L:1/8
Q:1/4=80
M:2/4
K:G
V:1 treble nm="Tr." snm="Tr."
V:2 treble nm="C." snm="C."
V:3 treble-8 nm="T." snm="T."
V:4 bass nm="B." snm="B."
V:1
 G2 z2 | B2 z2 | z4 | z4 | z4 | B4 | z4 | z4 | d2 d2 | G2 A2 | B2 c2 | B2 AB | d4 | B2 c2 | A2 B2 | %15
w: |||||sing:|||Glo- ry!|Glo- ry|to the|new- born *|King.|||
 d2 d2 | d3 z | G2 G2 | B2 B2 | ed cA | A4 | d2 BA | B2 de | d2 [ce]2 | d4 |: z4 | z4 | z4 | z4 | %29
w: ||||||||||||||
 d2 d2 | ef fe | d2 d2 | d4 | B2 B2 | d2 d2 | ed cB | A4 | B2 d2 | e2 c2 | BA B>c | d4 | z4 | z4 | %43
w: Joy- ful|all * ye *|na- tions|rise,|Join the|tri- umph|of * the *|skies.|||||||
 G3 B | c3 e | d2 d2 |1 [Bd]3 z ::2 d4 || z4 | z4 | z4 | z4 | z4 | z4 | z4 | z4 | z4 | z4 | z4 | %59
w: ||||||||||||||||
 z4 | z4 | z4 | z4 | z4 :: z4 | G2 z2 | B2 z2 | d2 d2 | B2 B2 | c2 c>B | A3 z | A2 A2 | d2 d2 | %73
w: ||||||||||||||
 Bd ec | d3 z | d2 B2 | A2 F2 | G>A B>c | d3 z | z4 | z4 | z4 | z4 | d3 d | g3 c | d2 d2 |1 %86
w: |||||||||||||
 [Bd]3 z :|2 [Bd]4 || B4 | B3 B | B4 | z4 | d4 | d3 d | (e d3) | z4 | (d3 e | d4) | G4 | A4 | B4- | %101
w: |||||||||||||||
 B4 |] %102
w: |
V:2
 G2 z2 | D2 z2 | D3 D | B,2 B,2 | B,/C/D/E/D ^C | D4 | A,2 A,2 | z4 | z4 | z4 | z4 | z4 | z4 | %13
w: Hark!|Hark!|Hark, the|he- rald|an- * * * * gels|sing;|glo- ry!|||||||
 G2 E2 | E2 D2 | B,2 A,B, | D3 z | [B,D]2 [B,D]2 | E2 E2 | GF E2 | D4 | B,2 B,D | E2 FE | D2 C2 | %24
w: Glo- ry|to the|new- born *|King;|Peace on|earth and|mer- * cy|mild,|God and *|sin- ners *|re- con-|
 B,4 |: D2 D2 | GF EF | G2 E2 | D4 | B,2 B,2 | A,2 A,2 | D>E FD | G4 | z4 | z4 | z4 | z4 | G2 G2 | %38
w: ciled.|Joy- ful|all * ye *|na- tions|rise,|Join the|tri- umph|of * the *|skies,|||||With the|
 E2 E2 | D2 D>B, | B,4 | G2 GE | D4 | B,3 D | E3 [CG] | [B,F]2 [B,F]2 |1 [B,G]3 z ::2 G4 || z4 | %49
w: heaven- ly|host pro- *|claim,|Christ is *|born,|Christ is|born in|Beth- le-|hem.|||
 z4 | z4 | z4 | z4 | z4 | z4 | z4 | z4 | z4 | z4 | z4 | z4 | z4 | z4 | z4 :: z4 | G2 z2 | D2 z2 | %67
w: ||||||||||||||||Hail!|Hail!|
 B,2 B,2 | DE DB, | A,2 A,>B, | [A,C]3 z | C2 C2 | B,2 B,2 | E2 DC | B,3 z | B,2 D2 | C2 E2 | %77
w: Hail the|heav'n- * born *|Prince of *|Peace,|Hail thou|Sun of|right- eous- *|ness,|risen with|hea- ling|
 D2 D2 | [A,D]3 z | z4 | z4 | z4 | z4 | D3 B, | C3 B, | G2 [DF]2 |1 [DG]3 z :|2 [DG]4 || D4 | %89
w: in his|wings.|||||Light and|life thy|ri- sing|brings.||Praise|
 D3 D | D4 | z4 | G4 | G3 G | (E D3) | z4 | (B,3 C | D4) | G4 | D4 | D4- | D4 |] %102
w: ye the|Lord!||Praise|ye the|Lord! *||Praise *||ye|the|Lord!||
V:3
 G2 z2 | B2 z2 | d3 B | d2 d2 | d/e/d/c/B A | G4 | A2 A2 | z4 | z4 | z4 | z4 | z4 | z4 | d2 e2 | %14
w: ||||||||||||||
 c2 d2 | BG AB | G3 z | d2 d2 | e2 e2 | cB AG | [Dd]4 | G2 Bd | ge dc | B2 A2 | G4 |: z4 | z4 | %27
w: |||||||||||||
 B2 B2 | GB dB | G2 GB | c4 | B2 B2 | d2 d2 | ed cB | A4 | z4 | z4 | d2 B2 | c2 A2 | BA G>B | d4 | %41
w: Joy- ful|all * ye *|na- tions *|rise,|Join the|tri- umph|of * the *|skies.|||||||
 z4 | z4 | G>AB d | g3 c | B2 A2 |1 G3 z ::2 G4 || G2 B2 | d2 d2 | ed cB | B2 z2 | B2 d2 | e2 f2 | %54
w: |||||||Christ, by|high- est|heaven * a- *|dored,|Christ, the|ev- er-|
 gf e^d | e2 z2 | g2 B2 | e3 d | d>B A>G | A2 z2 | d2 (3def | g2 (3edc | B2 A2 | G4 :: z4 | G2 z2 | %66
w: las- * ting *|Lord;|Low- ly|lays his|glo- * ries *|by,|Born for * *|men, for * *|men to|die.|||
 B2 z2 | d2 d2 | dB dB | A2 A2 | A3 z | c2 c2 | B2 d2 | ed ^c2 | d3 z | d2 B2 | c2 A2 | B>c d>B | %78
w: ||||||||||||
 A3 z | z4 | z4 | B3 B/e/ | d3 z | g3 G | e3 c | B2 A2 |1 G3 z :|2 G4 || G4 | G3 G | G4 | z4 | B4 | %93
w: |||Light and *|life,|||||||||||
 B3 B | (B A3) | z4 | (d3 e/f/ | g4) | B4 | A4 | G4- | G4 |] %102
w: |||||||||
V:4
 G,2 z2 | [D,B,]2 z2 | z4 | z4 | z4 | G,4 | z4 | D,2 D,2 | G,2 G,2 | G,2 D,2 | B,,2 C,2 | D,2 D,2 | %12
w: |||||sing:||Glo- ry!|Glo- ry!|Glor- ry|to the|new- born|
 [G,,G,]4 | G,2 G,2 | C,2 G,2 | D,>C, D,>E, | [G,,D,G,]3 z | G,2 G,2 | E,2 E,2 | A,B, A,G, | D,4 | %21
w: King.|||||||||
 G,2 D,2 | B,,2 C,2 | D,2 E,F, | [G,,G,]4 |: G,2 G,2 | G,B, DB, | G,2 G,2 | [D,D]4 | B,2 B,2 | %30
w: ||||Joy- ful|all * ye *|na- tions|rise,|Join the|
 A,2 A,2 | [D,D]2 D,2 | G,4 | z4 | D,4 | z4 | z4 | G,2 G,2 | A,2 A,2 | B,A, B,>D | [G,,G,]4 | %41
w: tri- umph|of the|skies;||skies,|||||||
 G,2 G,E, | D,4 | G,3 D, | E,3 C, | D,2 D,2 |1 [G,,G,]3 z ::2 [G,,G,]4 || z4 | z4 | z4 | z4 | z4 | %53
w: ||||||||||||
 z4 | z4 | z4 | B,2 [E,G,]2 | E,3 G, | D,>E, D,>E, | [A,,A,]2 z2 | D,2 D,2 | G,2 E,2 | B,,2 D,2 | %63
w: ||||||||||
 [G,,G,]4 :: z4 | G,2 z2 | [D,B,]2 z2 | G,2 G,2 | D,E, D,E, | C,2 C,2 | [A,,A,]3 z | A,2 A,2 | %72
w: |||||||||
 [D,D]2 D,2 | E,2 A,2 | [G,,G,]3 z | G,2 G,B, | C2 C2 | G,2 G,2 | D,3 z | G,2 G,A, | [A,,D,A,]3 z | %81
w: |||||||Light and *|life,|
 z4 | z4 | G,3 G, | C,3 C, | D,2 D,2 |1 [G,,G,]3 z :|2 %87
w: ||||||
"__________________________________________________________________________________________\nEdited by B. C. Johnston, 2019\n  1. Measures 7-9 and 49-64, originally marked for 4:4 fast time, conerted to 2:4 time with note values halved.\n  2. Measure 64, \nTenor\n: note changed from F to C, probably a misprint.\n" [G,,G,]4 || %88
w: |
 G,,4 | G,,3 G,, | [G,,D,]4 | z4 | G,4 | G,3 G, | (G, D,3) | z4 | (B,3 A, | G,4) | [D,D]4 | D,4 | %100
w: ||||||||||||
 ([G,,-G,]4 | [G,,G,]4) |] %102
w: ||

